build/assets/images/content/service_time.svg

<svg width="41" height="40" viewBox="0 0 41 40" fill="none" xmlns="http://www.w3.org/2000/svg">
<g clip-path="url(#clip0_27_5256)">
<g filter="url(#filter0_b_27_5256)">
<rect x="0.333008" width="40" height="40" rx="12" fill="url(#paint0_radial_27_5256)" fill-opacity="0.3"/>
<rect x="1.33301" y="1" width="38" height="38" rx="11" stroke="url(#paint1_linear_27_5256)" stroke-width="2"/>
</g>
<path fill-rule="evenodd" clip-rule="evenodd" d="M19.0328 12.2C14.725 12.2 11.2328 15.6922 11.2328 20C11.2328 24.3078 14.725 27.8 19.0328 27.8C20.5054 27.8 21.879 27.3932 23.0517 26.6865L24.3936 28.9135C22.8272 29.8573 20.9914 30.4 19.0328 30.4C13.2891 30.4 8.63281 25.7437 8.63281 20C8.63281 14.2562 13.2891 9.59998 19.0328 9.59998C24.7766 9.59998 29.4328 14.2562 29.4328 20H32.0328L28.1328 25.2L24.2328 20H26.8328C26.8328 15.6922 23.3406 12.2 19.0328 12.2ZM20.3328 19.6064V14.8H17.7328V20.3936L20.5511 24.6211L22.7145 23.1789L20.3328 19.6064Z" fill="#D42515"/>
</g>
<defs>
<filter id="filter0_b_27_5256" x="-31.2759" y="-31.6089" width="103.218" height="103.218" filterUnits="userSpaceOnUse" color-interpolation-filters="sRGB">
<feFlood flood-opacity="0" result="BackgroundImageFix"/>
<feGaussianBlur in="BackgroundImage" stdDeviation="15.8045"/>
<feComposite in2="SourceAlpha" operator="in" result="effect1_backgroundBlur_27_5256"/>
<feBlend mode="normal" in="SourceGraphic" in2="effect1_backgroundBlur_27_5256" result="shape"/>
</filter>
<radialGradient id="paint0_radial_27_5256" cx="0" cy="0" r="1" gradientUnits="userSpaceOnUse" gradientTransform="translate(39.1048 18.4936) rotate(175.111) scale(54.5563 43.5884)">
<stop stop-color="#D42515"/>
<stop offset="1" stop-color="#FF9F96" stop-opacity="0"/>
</radialGradient>
<linearGradient id="paint1_linear_27_5256" x1="-8.64075" y1="-9.40531" x2="20.0751" y2="13.9711" gradientUnits="userSpaceOnUse">
<stop stop-color="#FF3C3C"/>
<stop offset="1" stop-color="#FF3131" stop-opacity="0"/>
</linearGradient>
<clipPath id="clip0_27_5256">
<rect width="40" height="40" fill="white" transform="translate(0.333008)"/>
</clipPath>
</defs>
</svg>

<svg width="41" height="40" fill="none" xmlns="http://www.w3.org/2000/svg"><g clip-path="url(#clip0_27_5256)"><g filter="url(#filter0_b_27_5256)"><rect x=".333" width="40" height="40" rx="12" fill="url(#paint0_radial_27_5256)" fill-opacity=".3"/><rect x="1.333" y="1" width="38" height="38" rx="11" stroke="url(#paint1_linear_27_5256)" stroke-width="2"/></g><path fill-rule="evenodd" clip-rule="evenodd" d="M19.033 12.2a7.8 7.8 0 104.019 14.486l1.342 2.227a10.358 10.358 0 01-5.361 1.487c-5.744 0-10.4-4.656-10.4-10.4 0-5.744 4.656-10.4 10.4-10.4 5.744 0 10.4 4.656 10.4 10.4h2.6l-3.9 5.2-3.9-5.2h2.6a7.8 7.8 0 00-7.8-7.8zm1.3 7.406V14.8h-2.6v5.594l2.818 4.227 2.164-1.442-2.382-3.573z" fill="#D42515"/></g><defs><radialGradient id="paint0_radial_27_5256" cx="0" cy="0" r="1" gradientUnits="userSpaceOnUse" gradientTransform="rotate(175.111 19.158 10.082) scale(54.5563 43.5884)"><stop stop-color="#D42515"/><stop offset="1" stop-color="#FF9F96" stop-opacity="0"/></radialGradient><linearGradient id="paint1_linear_27_5256" x1="-8.641" y1="-9.405" x2="20.075" y2="13.971" gradientUnits="userSpaceOnUse"><stop stop-color="#FF3C3C"/><stop offset="1" stop-color="#FF3131" stop-opacity="0"/></linearGradient><clipPath id="clip0_27_5256"><path fill="#fff" transform="translate(.333)" d="M0 0h40v40H0z"/></clipPath><filter id="filter0_b_27_5256" x="-31.276" y="-31.609" width="103.218" height="103.218" filterUnits="userSpaceOnUse" color-interpolation-filters="sRGB"><feFlood flood-opacity="0" result="BackgroundImageFix"/><feGaussianBlur in="BackgroundImage" stdDeviation="15.805"/><feComposite in2="SourceAlpha" operator="in" result="effect1_backgroundBlur_27_5256"/><feBlend in="SourceGraphic" in2="effect1_backgroundBlur_27_5256" result="shape"/></filter></defs></svg>
